X: 10
T: Money in Both Pockets
M: 6/8
Z: Transcribed to abc by Mary Lou Knack
R: jig
K: D
A \
| "D"d2F "A"FEF | "D"DFA AFD | d2F "A"FEF | "D"D2f fef \
| "D"d2F "A"FEF | "D"DFA AFD | "Em"EFE EFA | "A"BBB B2 :|
|: A \
| "D"dfa afd | "A"cea ecA | "D"dfa afd | "G"g3 "(D)"fga \
| "G"bag "D"agf | "Em"ede "Bm"fdB | "F#m"ABA AFA | "G"BBB "A7"B2 :|

%%sep 2 1 500

